svgs/regular/pen-nib.svg

<svg xmlns="http://www.w3.org/2000/svg" viewBox="0 0 512 512"><!--! Font Awesome Pro 6.1.1 by @fontawesome - https://fontawesome.com License - https://fontawesome.com/license (Commercial License) Copyright 2022 Fonticons, Inc. --><path d="M368.4 18.34C390.3-3.526 425.7-3.526 447.6 18.34L493.7 64.4C515.5 86.27 515.5 121.7 493.7 143.6L412.2 225L371.6 374.1C366.7 391.9 353.5 406.1 336.1 412.2L71.97 505C53.47 511.5 32.89 506.8 19.03 492.1C5.168 479.1 .4845 458.5 6.982 440L99.79 175.9C105.9 158.5 120.1 145.3 137.9 140.4L286.1 99.77L368.4 18.34zM296.9 146.8L150.5 186.7C147.1 187.4 145.9 189.3 145.1 191.8L62.47 426.9L164.7 324.7C161.7 318.4 160 311.4 160 304C160 277.5 181.5 256 208 256C234.5 256 256 277.5 256 304C256 330.5 234.5 352 208 352C200.6 352 193.6 350.3 187.3 347.3L85.1 449.5L320.2 366.9C322.7 366.1 324.6 364 325.3 361.5L365.2 215.1L296.9 146.8z"/></svg>

<svg xmlns="http://www.w3.org/2000/svg" viewBox="0 0 512 512"><!--! Font Awesome Pro 6.4.2 by @fontawesome - https://fontawesome.com License - https://fontawesome.com/license (Commercial License) Copyright 2023 Fonticons, Inc. --><path d="M368.4 18.3c21.9-21.9 57.3-21.9 79.2 0l46.1 46.1c21.9 21.9 21.9 57.3 0 79.2l-71 71L412.2 225 371.6 374.1c-4.8 17.8-18.1 32-35.5 38.1L72 505c-18.5 6.5-39.1 1.8-52.9-12S.5 458.5 7 440L99.8 175.9c6.1-17.4 20.3-30.6 38.1-35.5L287 99.8l10.4-10.4 71-71zM296.9 146.8L150.5 186.7c-2.5 .7-4.6 2.6-5.4 5.1L62.5 426.9 164.7 324.7c-3-6.3-4.7-13.3-4.7-20.7c0-26.5 21.5-48 48-48s48 21.5 48 48s-21.5 48-48 48c-7.4 0-14.4-1.7-20.7-4.7L85.1 449.5l235.1-82.6c2.5-.9 4.4-2.9 5.1-5.4l39.9-146.4-68.3-68.3z"/></svg>
